X:1
T:Voicy le bon temps
T:Voicy le bon temps
T:Eustorg de Beaulieu (?1495-1552)
T:2010 by Paul R Marchesano. May be freely copied for nonprofit use.
T:2010 by Paul R Marchesano. May be freely copied for nonprofit use.
T:2010 by Paul R Marchesano. May be freely copied for nonprofit use.
C:Eustorg de Beaulieu
C:(?1495-1552)
Z:2010 by Paul R Marchesano. May be freely copied for nonprofit use.
%%score [ 1 2 3 4 ]
L:1/8
Q:1/4=184
M:2/2
K:Ab
V:1 treble nm="Soprano" snm="S"
V:2 treble nm="Alto" snm="A"
V:3 treble-8 nm="Tenor" snm="T"
V:4 bass nm="Bass" snm="B"
V:1
 B2 d2 d2 c2 | d4 B3 B | c2 B2 A2 B2 | c6 B2 | A2 A2 G4 | z8 | A3 F GA B2- | BA/G/ A2 B4 | %8
w: Voi- cy le bon|temps que chas-|cun s'a- pres- te|D'al- ler|sur les champs||pour luy fai- * re|_ _ _ fes- te|
 z4 F3 B | A2 A2 G2 F2 | z8 | z2 B4 A2 | F2 A2 G2 F2 | d6 c2 | B2 B2 A4- | A4 z2 d2- | %16
w: Sur la|gay- eher- be- te||Sur la|gay- eher- be- te|en nous|de- duy- sant|_ d'u-|
 d2 d2 B2 B2 | c2 A2 G2 B2 | B2 A2 B4 | z2 d4 d2 | B2 B2 c2 A2 | G2 B2 B2 A2 | B8 |] %23
w: * ne chan- son-|ne- te fai- sons|luy pre- sent,|d'u- ne|chan- son- ne- te|fai- sons luy pre-|sent.|
V:2
 z4 F2 A2 | A2 A2 G4 | z8 | A3 A A2 E2 | F4 B,3 B, | C2 B,2 A,2 B,2 | F2 F2 E2 B,2 | F4 F4 | z8 | %9
w: Voi- cy|le bon temps||D'al- ler sur les|champs pour luy|fai- re fes- te|pour luy fai- re|fes- te||
 z4 z2 C2- | CD EF G2 F2 | F2 E2 F4 | z4 z2 B,C | DEFG A2 A2 | F2 G2 F4- | F4 z2 A2- | A2 A2 G3 F | %17
w: en|_ _ _ _ _ nous|de- duy- sant|en _|_ _ _ _ _ nous|de- duy- sant|_ d'u-|* ne chan- son-|
 E2 F2 B,2 E2 | F2 F2 D4 | z2 A4 A2 | G3 F E2 F2 | B,2 E2 F2 F2 | D8 |] %23
w: ne- te fai- sons|luy pre- sent,|d'u- ne|chan- son- ne- te|fai- sons luy pre-|sent.|
V:3
 B2 f2 d2 e2 | f4 e3 B | e2 d2 c2 B2 | ABcd e2 B2 | c2 d2 e4 | z8 | d3 c B2 e2 | c4 B4 | z4 d3 d | %9
w: Voi- cy le bon|temps que chas-|cun s'a- pres- te|D'al- * * * * ler|sur les champs||pour luy fai- re|fes- te|Sur la|
 c2 f2 e2 f2 | z8 | z4 c3 c | d2 f2 e2 f2 | B2 f4 e2 | d2 d2 c4- | c4 z2 f2- | f2 f2 e3 d | %17
w: gay- eher- be- te||Sur la|gay- eher- be- te|en _ nous|de- duy- sant|_ d'u-|* ne chan- son-|
 c2 d2 ed cB | c2 c2 B4 | z2 f4 f2 | e3 d c2 d2 | ed cB c2 c2 | B8 |] %23
w: ne- te fai- * sons _|luy pre- sent,|d'u- ne|chan- son- ne- te|fai- * sons _ luy pre-|sent.|
V:4
 z4 B,2 A,2 | D,2 D,2 E,4 | z8 | F,2 A,2 A,2 G,2 | F,4 E,3 E, | C,2 D,2 C,2 B,,2 | %6
w: Voi- cy|le bon temps||D'al- ler sur les|champs pour luy|fai- re fes- te|
 D,2 D,2 E,2 _G,2 | F,4 B,,4 | z8 | z4 z2 F,G, | A,B, C4 A,2 | G,2 G,2 F,4 | z8 | %13
w: pour luy fai- re|fes- te||en _|_ _ _ nous|de- duy- sant||
 B,,C,D,E, F,G, A,2 | B,2 B,2 F,4- | F,4 z2 D,2- | D,2 D,2 E,2 E,2 | A,2 F,2 E,2 G,2 | %18
w: en _ _ _ _ _ nous|de- duy- sant|_ d'u-|* ne chan- son-|ne- te fai- sons|
 F,2 F,2 B,,4 | z2 D,4 D,2 | E,2 E,2 A,2 F,2 | E,2 G,2 F,2 F,2 | B,,8 |] %23
w: luy pre- sent,|d'u- ne|chan- son- ne- te|fai- sons luy pre-|sent.|

